src/client/web-contents/img/common/badge/badge_status_03.svg

<svg height="32" viewBox="0 0 56 32" width="56" xmlns="http://www.w3.org/2000/svg"><g fill="none" fill-rule="evenodd"><rect fill="#ee4ac0" height="32" rx="4" width="56"/><path d="m10 9.716h2.214v5.238h6.012v-5.238h2.214v12.6h-2.214v-5.31h-6.012v5.31h-2.214zm18.728 10.782c.6240031 0 1.1969974-.1169988 1.719-.351s.9689981-.551998 1.341-.954.662999-.8729973.873-1.413c.2100011-.5400027.315-1.1159969.315-1.728v-.036c0-.6120031-.1049989-1.1909973-.315-1.737-.210001-.5460027-.5039981-1.019998-.882-1.422s-.8309974-.7229988-1.359-.963-1.1039969-.36-1.728-.36-1.1969974.1169988-1.719.351-.9689981.551998-1.341.954-.6629989.8729973-.873 1.413c-.210001.5400027-.315 1.1159969-.315 1.728v.036c0 .6120031.104999 1.1909973.315 1.737.2100011.5460027.5039981 1.019998.882 1.422s.8309974.7229988 1.359.963 1.1039969.36 1.728.36zm-.036 2.034c-.9720049 0-1.859996-.1709983-2.664-.513s-1.4939971-.8069971-2.07-1.395-1.0259984-1.2749961-1.35-2.061-.486-1.6229956-.486-2.511v-.036c0-.8880044.1619984-1.7249961.486-2.511s.7799971-1.475997 1.368-2.07 1.283996-1.0649983 2.088-1.413c.804004-.34800174 1.6919951-.522 2.664-.522s1.859996.17099829 2.664.513c.804004.3420017 1.4939971.8069971 2.07 1.395s1.0259984 1.2749961 1.35 2.061.486 1.6229956.486 2.511v.036c0 .8880044-.1619984 1.7249961-.486 2.511s-.7799971 1.475997-1.368 2.07-1.283996 1.0649983-2.088 1.413-1.6919951.522-2.664.522zm11.384-10.764h-3.996v-2.052h10.224v2.052h-3.996v10.548h-2.232z" fill="#fff"/></g></svg>

<?xml version="1.0" encoding="UTF-8" standalone="no"?>
<svg width="56px" height="32px" viewBox="0 0 56 32" version="1.1" xmlns="http://www.w3.org/2000/svg" xmlns:xlink="http://www.w3.org/1999/xlink">
    <!-- Generator: Sketch 50.2 (55047) - http://www.bohemiancoding.com/sketch -->
    <title>graphic_badge_status_03</title>
    <desc>Created with Sketch.</desc>
    <defs></defs>
    <g id="Icon_Badge_Graphic" stroke="none" stroke-width="1" fill="none" fill-rule="evenodd">
        <g id="##Element/Badge/Status03">
            <rect id="Rectangle-2" fill="#EE4AC0" x="0" y="0" width="56" height="32" rx="4"></rect>
            <path d="M10,9.716 L12.214,9.716 L12.214,14.954 L18.226,14.954 L18.226,9.716 L20.44,9.716 L20.44,22.316 L18.226,22.316 L18.226,17.006 L12.214,17.006 L12.214,22.316 L10,22.316 L10,9.716 Z M28.728,20.498 C29.3520031,20.498 29.9249974,20.3810012 30.447,20.147 C30.9690026,19.9129988 31.4159981,19.595002 31.788,19.193 C32.1600019,18.790998 32.450999,18.3200027 32.661,17.78 C32.8710011,17.2399973 32.976,16.6640031 32.976,16.052 L32.976,16.016 C32.976,15.4039969 32.8710011,14.8250027 32.661,14.279 C32.450999,13.7329973 32.1570019,13.259002 31.779,12.857 C31.4009981,12.454998 30.9480026,12.1340012 30.42,11.894 C29.8919974,11.6539988 29.3160031,11.534 28.692,11.534 C28.0679969,11.534 27.4950026,11.6509988 26.973,11.885 C26.4509974,12.1190012 26.0040019,12.436998 25.632,12.839 C25.2599981,13.241002 24.9690011,13.7119973 24.759,14.252 C24.548999,14.7920027 24.444,15.3679969 24.444,15.98 L24.444,16.016 C24.444,16.6280031 24.548999,17.2069973 24.759,17.753 C24.9690011,18.2990027 25.2629981,18.772998 25.641,19.175 C26.0190019,19.577002 26.4719974,19.8979988 27,20.138 C27.5280026,20.3780012 28.1039969,20.498 28.728,20.498 Z M28.692,22.532 C27.7199951,22.532 26.832004,22.3610017 26.028,22.019 C25.223996,21.6769983 24.5340029,21.2120029 23.958,20.624 C23.3819971,20.0359971 22.9320016,19.3490039 22.608,18.563 C22.2839984,17.7769961 22.122,16.9400044 22.122,16.052 L22.122,16.016 C22.122,15.1279956 22.2839984,14.2910039 22.608,13.505 C22.9320016,12.7189961 23.3879971,12.029003 23.976,11.435 C24.5640029,10.840997 25.259996,10.3700017 26.064,10.022 C26.868004,9.67399826 27.7559951,9.5 28.728,9.5 C29.7000049,9.5 30.587996,9.67099829 31.392,10.013 C32.196004,10.3550017 32.8859971,10.8199971 33.462,11.408 C34.0380029,11.9960029 34.4879984,12.6829961 34.812,13.469 C35.1360016,14.2550039 35.298,15.0919956 35.298,15.98 L35.298,16.016 C35.298,16.9040044 35.1360016,17.7409961 34.812,18.527 C34.4879984,19.3130039 34.0320029,20.002997 33.444,20.597 C32.8559971,21.191003 32.160004,21.6619983 31.356,22.01 C30.551996,22.3580017 29.6640049,22.532 28.692,22.532 Z M40.076,11.768 L36.08,11.768 L36.08,9.716 L46.304,9.716 L46.304,11.768 L42.308,11.768 L42.308,22.316 L40.076,22.316 L40.076,11.768 Z" id="HOT" fill="#FFFFFF"></path>
        </g>
    </g>
</svg>
